src/lib/packages/icons/src/assets/filled/shopping-bag.svg

<svg xmlns="http://www.w3.org/2000/svg" width="24" height="24" fill="none"><path fill="currentColor" fill-rule="evenodd" d="M9.25 8h-1.5V6.5A4.26 4.26 0 0 1 12 2.25a4.26 4.26 0 0 1 4.25 4.25V8h-1.5V6.5c0-1.52-1.23-2.75-2.75-2.75S9.25 4.98 9.25 6.5V8Zm9.25 0h-2.25v3c0 .41-.34.75-.75.75s-.75-.34-.75-.75V8h-5.5v3c0 .41-.34.75-.75.75s-.75-.34-.75-.75V8H5.5C4.67 8 4 8.67 4 9.5V18c0 2 1 3 3 3h10c2 0 3-1 3-3V9.5c0-.83-.67-1.5-1.5-1.5Z" clip-rule="evenodd"/></svg>

<svg width="24" height="24" viewBox="0 0 24 24" fill="none" xmlns="http://www.w3.org/2000/svg">
<path fill-rule="evenodd" clip-rule="evenodd" d="M9.25 8H7.75V6.5C7.75 4.16 9.66 2.25 12 2.25C14.34 2.25 16.25 4.16 16.25 6.5V8H14.75V6.5C14.75 4.98 13.52 3.75 12 3.75C10.48 3.75 9.25 4.98 9.25 6.5V8ZM18.5 8H16.25V11C16.25 11.41 15.91 11.75 15.5 11.75C15.09 11.75 14.75 11.41 14.75 11V8H9.25V11C9.25 11.41 8.91 11.75 8.5 11.75C8.09 11.75 7.75 11.41 7.75 11V8H5.5C4.67 8 4 8.67 4 9.5V18C4 20 5 21 7 21H17C19 21 20 20 20 18V9.5C20 8.67 19.33 8 18.5 8Z" fill="currentColor"/>
</svg>
